www/assets/icons/signal_wifi_statusbar_connected_no_internet_4.svg

<svg xmlns="http://www.w3.org/2000/svg" width="24" height="24" viewBox="0 0 24 24" fill='currentColor'><path d="M12.54 3.5c-4.69 0-8.93 1.9-12 4.98l12 12.02 5-5.01V7.5h5.92c-2.95-2.49-6.76-4-10.92-4m9 14h-2v2h2z"/><path d="M21.54 9.5h-2v6h2z"/></svg>

<svg width="24" height="24" viewBox="0 0 24 24" xmlns="http://www.w3.org/2000/svg" fill='currentColor'><path d="M12.54 3.5C7.84998 3.5 3.60998 5.4 0.539978 8.48L12.54 20.5L17.54 15.49V7.5H23.46C20.51 5.01 16.7 3.5 12.54 3.5Z"/><path d="M21.54 17.5H19.54V19.5H21.54V17.5Z"/><path d="M21.54 9.5H19.54V15.5H21.54V9.5Z"/></svg>
